assets/svgs/misc-grey/MiscGrey24.svg

<svg width="39" height="39" viewBox="0 0 39 39" fill="none" xmlns="http://www.w3.org/2000/svg">
<path fill-rule="evenodd" clip-rule="evenodd" d="M25.568 13.473C24.982 12.887 24.033 12.887 23.447 13.473L19.676 17.244L15.905 13.473C15.319 12.887 14.37 12.887 13.784 13.473C13.198 14.059 13.198 15.009 13.784 15.594L17.555 19.365L13.784 23.137C13.198 23.722 13.198 24.672 13.784 25.258C14.077 25.551 14.46 25.697 14.844 25.697C15.228 25.697 15.612 25.551 15.905 25.258L19.676 21.486L23.447 25.258C23.74 25.551 24.124 25.697 24.508 25.697C24.892 25.697 25.275 25.551 25.568 25.258C26.154 24.672 26.154 23.722 25.568 23.137L21.797 19.365L25.568 15.594C26.154 15.009 26.154 14.059 25.568 13.473ZM19.676 35.616C10.716 35.616 3.42603 28.326 3.42603 19.366C3.42603 10.405 10.716 3.11603 19.676 3.11603C28.637 3.11603 35.926 10.405 35.926 19.366C35.926 28.326 28.637 35.616 19.676 35.616ZM19.676 0.116028C9.06203 0.116028 0.426025 8.75103 0.426025 19.366C0.426025 29.98 9.06203 38.616 19.676 38.616C30.291 38.616 38.926 29.98 38.926 19.366C38.926 8.75103 30.291 0.116028 19.676 0.116028Z" fill="#1A1919"/>
</svg>

<svg xmlns="http://www.w3.org/2000/svg" fill="none" viewBox="0 0 39 39"><path fill="#1A1919" fill-rule="evenodd" d="M25.568 13.473a1.5 1.5 0 00-2.121 0l-3.771 3.771-3.771-3.771a1.5 1.5 0 10-2.121 2.121l3.771 3.771-3.771 3.772a1.5 1.5 0 102.121 2.121l3.771-3.772 3.771 3.772c.293.293.677.439 1.061.439a1.5 1.5 0 001.06-2.56l-3.771-3.772 3.771-3.771a1.5 1.5 0 000-2.121zm-5.892 22.143c-8.96 0-16.25-7.29-16.25-16.25 0-8.961 7.29-16.25 16.25-16.25 8.961 0 16.25 7.289 16.25 16.25 0 8.96-7.289 16.25-16.25 16.25zm0-35.5C9.062.116.426 8.751.426 19.366c0 10.614 8.636 19.25 19.25 19.25 10.615 0 19.25-8.636 19.25-19.25 0-10.615-8.635-19.25-19.25-19.25z" clip-rule="evenodd"/></svg>
